X:17
M:C
L:1/8
Q:1/4=140
K:G
e2 ef g2 fe | dBGB d2 (BA) | GFGE DEFA | G2E2E2 :|!
|:(GA) | BGEG BGEG | BAGF E2 (FG) | AFDF AFDF | AGFE D2 (EF) |!

